X:1
T:Title
%%score { ( 1 3 5 ) | ( 2 4 ) }
L:1/8
M:4/4
K:Ab
V:1 treble nm="Grand Piano"
V:3 treble 
V:5 treble 
V:2 bass 
V:4 bass 
V:1
 z4 z2[Q:1/4=100] [CE]2 | [CE]3 [DF] [CE]2 [CA]2 | [Ec]2 [CA]4 [CA]2 | A3 B A2 F2 |[M:3/4] [CE]6 | %5
[M:1/4] [CE]2 |[M:4/4] [CA]3 [DB] [Ec]2 [_Ge]2 | [_Ge]2 [Fd]4 [Fd]2 | c3 A E2 B2 |[M:3/4] [CA]6 | %10
[M:1/4] [CE]2 |[M:4/4] c6 z2 | [Ec]2 [CA]2 [DF]2 [CE]2 | A6 z2 | A6 z2 | A6 z2 | %16
 [CE]2 [DF]2 [CA]2 [Ec]2 | B6 z2 | B6[K:bass][K:treble] z2 | c6 z2 | [Ec]2 [CA]2 [DF]2 [CE]2 | %21
 A6 z2 | A6 z2 | e6 z2 |[M:9/8] c2 B- B A2- A [Fd]2 | %25
[M:4/4] c3 A E2 B2[Q:1/4=99][Q:1/4=97][Q:1/4=96][Q:1/4=94][Q:1/4=93][Q:1/4=91][Q:1/4=90][Q:1/4=88][Q:1/4=87][Q:1/4=85][Q:1/4=84][Q:1/4=82][Q:1/4=81][Q:1/4=79][Q:1/4=78][Q:1/4=76] | %26
[M:3/4] [CA]6 |] %27
V:2
 z4 z2 [A,,A,]2 | [A,,A,]3 [A,,A,] [A,,A,]2 [A,,E,]2 | [A,,A,]2 [A,,E,]4 [A,,E,]2 | %3
 [D,F,D]3 [D,F,D] [D,F,D]2 [D,A,D]2 |[M:3/4] [A,,A,]6 |[M:1/4] [A,,A,]2 | %6
[M:4/4] [A,,E,]3 [A,,E,] [A,,A,]2 [C,A,]2 | [D,A,]2 [D,A,]4 [D,A,]2 | %8
 [E,A,E]3 [E,A,C] [E,G,D]2 [E,D]2 |[M:3/4] [A,,E,]6 |[M:1/4] [A,,A,]2 | %11
[M:4/4] [A,,A,]2 [A,,A,]2 z D [A,,E,]2 | [A,,A,]2 [A,,E,]2 [A,,A,]2 [A,,A,]2 | %13
 [A,,E,][A,,E,][A,,E,][A,,E,] [A,,E,]2 z2 | [A,,E,][A,,E,][A,,F,][A,,F,] [A,,E,]2 [C,A,]2 | %15
 [D,A,]2 [D,A,]2 [D,A,]2 [D,A,]2 | [A,,A,]2 [A,,A,]2 [A,,A,]2 [A,,A,]2 | %17
 [B,,F,]2 [B,,F,]2 [B,,A,]2 [B,,A,]2 | [G,E]6 [B,,G,]2 | [A,,A,]2 [A,,A,]2 z D [A,,E,]2 | %20
 [A,,A,]2 [A,,E,]2 [A,,A,]2 [A,,A,]2 | [A,,E,][A,,E,][A,,E,][A,,E,] [A,,E,]2 z2 | %22
 [A,,E,][A,,E,][A,,F,][A,,F,] [A,,E,]2[K:treble] [A,E]2 | [A,CA]2[K:bass] [E,B,]2 [A,C][A,E]DC | %24
[M:9/8] [A,E]2 [E,G,D]- [E,G,D] [F,A,C]2- [F,A,C] [D,A,]2 | %25
[M:4/4] [E,A,E]3 [E,A,C] [E,G,D]2 [E,D]2 |[M:3/4] [A,,E,]6 |] %27
V:3
 x8 | x8 | x8 | x8 |[M:3/4] x6 |[M:1/4] x2 |[M:4/4] x8 | x8 | x8 |[M:3/4] x6 |[M:1/4] x2 | %11
[M:4/4] E2 E2 EB[CA][DB] | x8 | CCCC z EFG | CCDD C2 [EA]2 | F2 F2 z B[FA][DF] | x8 | %17
 =D2 D2 z FBc | z2[K:bass] D,2 C,2[K:treble] E2 | E2 E2 EB[CA][DB] | x8 | CCCC z EFG | CCDD C2 c2 | %23
 z2 G2 AcBA |[M:9/8] x9 |[M:4/4] x8 |[M:3/4] x6 |] %27
V:4
 x8 | x8 | x8 | x8 |[M:3/4] x6 |[M:1/4] x2 |[M:4/4] x8 | x8 | x8 |[M:3/4] x6 |[M:1/4] x2 | %11
[M:4/4] z4 [A,,A,]2 z2 | x8 | x8 | x8 | x8 | x8 | x8 | E,2 z2 z4 | z4 [A,,A,]2 z2 | x8 | x8 | %22
 x6[K:treble] x2 | z4[K:bass] z2 A,2 |[M:9/8] x9 |[M:4/4] x8 |[M:3/4] x6 |] %27
V:5
 x8 | x8 | x8 | x8 |[M:3/4] x6 |[M:1/4] x2 |[M:4/4] x8 | x8 | x8 |[M:3/4] x6 |[M:1/4] x2 | %11
[M:4/4] x8 | x8 | z4 C2 z2 | x8 | z4 F2 z2 | x8 | z4 =D2 D2 | x2[K:bass] x4[K:treble] x2 | x8 | %20
 x8 | z4 C2 z2 | x8 | x8 |[M:9/8] x9 |[M:4/4] x8 |[M:3/4] x6 |] %27

